X: 27924
T: Mountain Road, The
R: reel
M: 4/4
K: Dmajor
F2AF BFAF|F2AF EFDE|F2AF BFAF|G2FG EDDE|
~F3A BFAF|F2AF EFDE|F~A3 BAFA|ABde fedc||
d3B ADFA|dcde ~fgfe|dcdB ADFA|GEFD EDDA|
d3B ADFA|dcde ~fgfe|dcdB ADFA|GEFD EDDE||

